packages/components/src/components/icon/cashier/ic-cashier-bitcoin-dark.svg

<svg width="40" height="25" viewBox="0 0 40 25" fill="none" xmlns="http://www.w3.org/2000/svg">
<circle cx="8.75" cy="12.5" r="5.625" fill="#F7931B"/>
<path fill-rule="evenodd" clip-rule="evenodd" d="M8.25098 9.85134L8.49929 8.83679L9.10414 8.99054L8.86061 9.98507C9.02366 10.0235 9.187 10.062 9.34608 10.102L9.58722 9.11385L10.1921 9.2676L9.94456 10.283C10.7086 10.5512 11.2673 10.954 11.1566 11.7035C11.0778 12.2512 10.7802 12.517 10.3847 12.6099C10.9274 12.899 11.2036 13.341 10.941 14.1089C10.6139 15.061 9.83791 15.1419 8.80649 14.9417L8.5558 15.9667L7.95095 15.8129L8.19766 14.8024C8.04168 14.7624 7.88091 14.7199 7.71538 14.6743L7.46787 15.6896L6.86302 15.5359L7.11371 14.5093C6.70778 14.4038 6.30176 14.2988 5.89526 14.1954L6.1953 13.4884C6.1953 13.4884 6.64098 13.6085 6.6354 13.6005C6.80651 13.6437 6.88212 13.5292 6.91236 13.4531C7.13912 12.5268 7.36531 11.6003 7.59122 10.6737C7.59918 10.5424 7.55461 10.3766 7.30949 10.3142C7.31904 10.307 6.87018 10.2029 6.87018 10.2029L7.03094 9.54306C7.43723 9.64642 7.84253 9.7567 8.25098 9.85134ZM8.39059 12.6051C8.33465 12.5923 8.28522 12.581 8.24462 12.5707L7.91275 13.9304C7.94642 13.9389 7.98586 13.9496 8.03001 13.9615C8.52324 14.0946 9.60338 14.3862 9.77504 13.6821C9.95075 12.962 8.90048 12.7217 8.39059 12.6051ZM8.82215 10.7442C8.77457 10.7335 8.73258 10.7241 8.69825 10.7154L8.39663 11.9485C8.42543 11.9558 8.4593 11.965 8.49728 11.9753C8.90944 12.0874 9.80539 12.3309 9.96207 11.6923C10.1217 11.0368 9.24791 10.8401 8.82215 10.7442Z" fill="white"/>
<path d="M27.133 11.3718C27.3424 11.3718 27.5298 11.3918 27.6942 11.4327C27.8598 11.4735 28.0099 11.5264 28.1452 11.5929L27.7889 12.4199C27.6958 12.3814 27.5991 12.3478 27.4992 12.3166C27.3993 12.2853 27.2771 12.2701 27.133 12.2701C26.7879 12.2701 26.5152 12.3914 26.3122 12.6333C26.11 12.8756 26.0085 13.2012 26.0085 13.6101C26.0085 13.8524 26.0595 14.0482 26.1622 14.198C26.2645 14.3478 26.4535 14.4223 26.7274 14.4223C26.8627 14.4223 26.9937 14.4079 27.1187 14.3798C27.2444 14.3514 27.3559 14.3158 27.4538 14.2729L27.531 15.1207C27.4005 15.1728 27.2564 15.2193 27.0984 15.2605C26.9399 15.2997 26.7513 15.3206 26.5324 15.3206C26.2438 15.3206 25.9994 15.2773 25.7996 15.1924C25.5994 15.1059 25.4342 14.9914 25.304 14.8464C25.1735 14.701 25.0795 14.5316 25.0214 14.3366C24.9633 14.142 24.9339 13.9373 24.9339 13.7238C24.9339 13.4011 24.9848 13.0967 25.0871 12.8115C25.189 12.5264 25.3363 12.2769 25.5273 12.0626C25.7176 11.85 25.9492 11.681 26.2219 11.5572C26.4937 11.4339 26.7974 11.3718 27.1326 11.3718H27.133ZM18.6509 9.69019L18.2187 11.5284C18.311 11.4859 18.4045 11.4531 18.4973 11.4291C18.5908 11.4051 18.6907 11.393 18.7974 11.393C19.0211 11.393 19.2145 11.4339 19.3769 11.5144C19.5401 11.5953 19.6747 11.7046 19.7829 11.8424C19.8892 11.9805 19.9684 12.1419 20.0198 12.327C20.0707 12.5124 20.0962 12.7118 20.0962 12.9257C20.0962 13.2537 20.0373 13.5637 19.9183 13.8556C19.7996 14.148 19.6384 14.4019 19.4331 14.6185C19.2281 14.8348 18.9861 15.005 18.7071 15.1311C18.4284 15.2569 18.1255 15.3202 17.7999 15.3202C17.7581 15.3202 17.6841 15.319 17.5794 15.3166C17.4751 15.3146 17.3549 15.3034 17.2204 15.2845C17.0851 15.2657 16.9418 15.2373 16.7909 15.1988C16.6397 15.1616 16.4964 15.1087 16.3615 15.0422L17.5695 9.86119L18.6509 9.69019ZM30.1369 11.3718C30.3789 11.3718 30.5919 11.4103 30.7762 11.486C30.9593 11.562 31.1105 11.6694 31.2299 11.8067C31.3481 11.9449 31.4377 12.1071 31.4982 12.2953C31.5591 12.4824 31.589 12.6906 31.589 12.9185C31.589 13.2028 31.5448 13.4884 31.4568 13.7739C31.3688 14.0583 31.2379 14.315 31.0655 14.5436C30.8936 14.7715 30.6787 14.9577 30.4199 15.1027C30.162 15.2473 29.8627 15.3202 29.5228 15.3202C29.276 15.3202 29.0622 15.2817 28.8803 15.206C28.6992 15.1299 28.5492 15.0234 28.4306 14.8852C28.3116 14.7479 28.2228 14.5849 28.1619 14.3971C28.1006 14.2096 28.0715 14.0018 28.0715 13.7743C28.0715 13.4888 28.1165 13.2032 28.2069 12.9185C28.2976 12.6333 28.4314 12.377 28.6089 12.1492C28.7848 11.9209 29.0021 11.7342 29.2577 11.5889C29.5132 11.4447 29.807 11.3718 30.1369 11.3718ZM24.0853 10.3674L23.8198 11.4719H24.9788L24.7695 12.341H23.6176L23.3107 13.6526C23.2824 13.7619 23.2661 13.864 23.2617 13.9585C23.2566 14.0538 23.2685 14.1359 23.2964 14.2048C23.3242 14.2737 23.374 14.327 23.4464 14.365C23.5185 14.4031 23.6216 14.4223 23.7569 14.4223C23.8683 14.4223 23.977 14.4115 24.0821 14.3903C24.1864 14.369 24.2922 14.3394 24.3993 14.3009L24.4765 15.1139C24.3368 15.166 24.1856 15.2108 24.0228 15.2489C23.8596 15.2873 23.6661 15.3058 23.4428 15.3058C23.122 15.3058 22.8733 15.2569 22.6957 15.16C22.519 15.0627 22.3936 14.9293 22.3188 14.7603C22.2448 14.5921 22.2117 14.3983 22.2213 14.18C22.2308 13.9609 22.2631 13.7311 22.3188 13.4888L23.0034 10.5384L24.0853 10.3674ZM22.0979 11.4719L21.2182 15.2205H20.1849L21.0574 11.4719H22.0979ZM33.5946 11.4719L32.715 15.2205H31.6809L32.5538 11.4719H33.5946ZM35.818 11.3862C36.3629 11.3862 36.7387 11.548 36.9461 11.8708C37.153 12.194 37.1889 12.6361 37.0547 13.1964L36.5795 15.2205H35.5394L35.9999 13.2393C36.0278 13.1151 36.0501 12.9958 36.0664 12.8788C36.0827 12.7631 36.0819 12.661 36.0624 12.5729C36.0441 12.4856 36.0011 12.4139 35.9339 12.3586C35.8658 12.3041 35.7627 12.2769 35.623 12.2769C35.4881 12.2769 35.3512 12.2917 35.2114 12.3202L34.534 15.2205H33.4935L34.3386 11.6429C34.417 11.6193 34.5045 11.5913 34.6001 11.5608C34.6956 11.53 34.8023 11.5016 34.9217 11.4759C35.0395 11.4495 35.1724 11.4279 35.3193 11.4115C35.4658 11.3942 35.6326 11.3862 35.818 11.3862ZM18.5395 12.2769C18.4742 12.2769 18.3898 12.2897 18.2851 12.3125C18.1801 12.3366 18.0861 12.3866 18.0021 12.4623L17.5416 14.4147L17.6149 14.4291C17.6352 14.4339 17.6578 14.4371 17.6805 14.4399C17.7044 14.4423 17.7319 14.4439 17.7649 14.4439H17.8903C18.0535 14.4439 18.2067 14.4031 18.3508 14.3226C18.4953 14.2425 18.6203 14.1335 18.725 13.9982C18.8292 13.8624 18.912 13.7098 18.9725 13.5384C19.0326 13.3674 19.0633 13.1892 19.0633 13.0038C19.0633 12.7755 19.0259 12.5977 18.9518 12.4691C18.8774 12.341 18.7397 12.2769 18.5399 12.2769H18.5395ZM30.0394 12.2701C29.8862 12.2701 29.7508 12.3154 29.635 12.4051C29.5184 12.496 29.4209 12.6097 29.3421 12.7475C29.2625 12.8856 29.2032 13.0362 29.163 13.2C29.1239 13.3642 29.1044 13.5192 29.1044 13.6666C29.1044 13.9045 29.1419 14.0899 29.2159 14.2232C29.2907 14.3554 29.4253 14.4223 29.6207 14.4223C29.7747 14.4223 29.9093 14.3774 30.0259 14.2865C30.1413 14.1968 30.2392 14.0823 30.3188 13.9445C30.398 13.8071 30.4573 13.6562 30.4976 13.492C30.5366 13.3286 30.5565 13.1724 30.5565 13.0254C30.5565 12.7883 30.519 12.6025 30.4442 12.4695C30.3698 12.3366 30.2348 12.2701 30.0394 12.2701ZM21.875 9.76107C22.0191 9.76107 22.1492 9.80512 22.2655 9.89283C22.3817 9.98094 22.4402 10.1155 22.4402 10.2953C22.4402 10.3954 22.4203 10.4891 22.3805 10.5773C22.3411 10.6654 22.2889 10.7411 22.2237 10.8055C22.1592 10.8696 22.0828 10.9201 21.9968 10.9585C21.9104 10.997 21.8189 11.015 21.7213 11.015C21.5773 11.015 21.4467 10.9709 21.3305 10.8832C21.2135 10.7959 21.1553 10.6618 21.1553 10.4807C21.1553 10.3806 21.1752 10.2877 21.2151 10.1992C21.2549 10.1111 21.3066 10.0358 21.3723 9.97092C21.4376 9.90725 21.5128 9.85639 21.5992 9.81794C21.6851 9.77989 21.7771 9.76107 21.875 9.76107ZM33.3709 9.76107C33.5154 9.76107 33.646 9.80512 33.7622 9.89283C33.8784 9.98094 33.9373 10.1155 33.9373 10.2953C33.9373 10.3954 33.9162 10.4891 33.8772 10.5773C33.8382 10.6654 33.7857 10.7411 33.7208 10.8055C33.6551 10.8696 33.5799 10.9201 33.4939 10.9585C33.4076 10.997 33.3156 11.015 33.2177 11.015C33.0736 11.015 32.9431 10.9709 32.8268 10.8832C32.7106 10.7959 32.6521 10.6618 32.6521 10.4807C32.6521 10.3806 32.672 10.2877 32.7118 10.1992C32.7508 10.1111 32.8034 10.0358 32.8686 9.97092C32.9339 9.90725 33.0099 9.85639 33.0955 9.81794C33.1815 9.77989 33.2734 9.76107 33.3709 9.76107Z" fill="white"/>
</svg>

<svg width="40" height="25" fill="none" xmlns="http://www.w3.org/2000/svg"><circle cx="8.75" cy="12.5" r="5.625" fill="#F7931B"/><path fill-rule="evenodd" clip-rule="evenodd" d="M8.251 9.851l.248-1.014.605.154-.243.994c.163.039.326.077.485.117l.241-.988.605.154-.247 1.015c.764.268 1.322.671 1.212 1.42-.08.548-.377.814-.772.907.542.289.819.731.556 1.499-.327.952-1.103 1.033-2.135.833l-.25 1.025-.605-.154.247-1.01c-.156-.04-.317-.083-.483-.129l-.247 1.016-.605-.154.25-1.027-1.218-.314.3-.707s.446.12.44.113c.172.043.247-.072.277-.148l.68-2.78c.007-.13-.037-.296-.283-.359.01-.007-.439-.111-.439-.111l.16-.66c.407.103.813.214 1.221.308zm.14 2.754l-.146-.034-.332 1.36.117.03c.493.134 1.573.425 1.745-.279.176-.72-.875-.96-1.384-1.077zm.431-1.86c-.047-.011-.09-.02-.124-.03l-.301 1.233.1.027c.412.112 1.308.356 1.465-.283.16-.655-.714-.852-1.14-.948z" fill="#fff"/><path d="M27.133 11.372a2.227 2.227 0 011.012.221l-.356.827a3.444 3.444 0 00-.29-.103 1.24 1.24 0 00-.366-.047c-.345 0-.618.121-.82.363-.203.243-.304.568-.304.977 0 .242.05.438.153.588.103.15.291.224.565.224a1.852 1.852 0 00.726-.15l.078.849c-.13.052-.275.098-.433.14-.158.039-.347.06-.566.06-.288 0-.533-.044-.732-.129a1.312 1.312 0 01-.778-.856 2.133 2.133 0 01-.088-.612c0-.323.05-.627.153-.912.102-.286.25-.535.44-.75.19-.212.422-.381.695-.505a2.18 2.18 0 01.91-.185h.001zM18.651 9.69l-.432 1.838a1.66 1.66 0 01.278-.099c.094-.024.194-.036.3-.036.224 0 .418.04.58.121.163.081.298.19.406.328.106.138.185.3.237.485.05.185.076.385.076.599 0 .328-.059.638-.178.93-.118.292-.28.546-.485.762a2.284 2.284 0 01-.726.513c-.279.126-.582.19-.907.19l-.22-.004a3.93 3.93 0 01-.788-.118 2.11 2.11 0 01-.43-.157l1.208-5.18 1.08-.172zm11.486 1.682c.242 0 .455.038.64.114a1.2 1.2 0 01.453.32c.118.139.208.301.268.49.061.186.091.395.091.623 0 .284-.044.57-.132.855a2.49 2.49 0 01-.392.77 2.056 2.056 0 01-.645.559 1.804 1.804 0 01-.897.217c-.247 0-.46-.038-.643-.114a1.187 1.187 0 01-.45-.32 1.389 1.389 0 01-.268-.489 1.998 1.998 0 01-.09-.623c0-.285.044-.57.135-.855.09-.286.224-.542.402-.77.176-.228.393-.415.649-.56a1.76 1.76 0 01.879-.217zm-6.052-1.005l-.265 1.105h1.159l-.21.869h-1.151l-.307 1.312c-.029.109-.045.211-.05.306a.572.572 0 00.035.246.309.309 0 00.15.16.677.677 0 00.31.057c.112 0 .221-.01.326-.032.104-.021.21-.05.317-.09l.078.814c-.14.052-.291.097-.454.135a2.563 2.563 0 01-.58.057c-.321 0-.57-.05-.747-.146a.838.838 0 01-.377-.4 1.286 1.286 0 01-.098-.58c.01-.22.042-.449.098-.691l.684-2.95 1.082-.172zm-1.987 1.105l-.88 3.748h-1.033l.872-3.748h1.04zm11.497 0l-.88 3.748h-1.034l.873-3.748h1.04zm2.223-.086c.545 0 .92.162 1.128.485.207.323.243.765.109 1.325l-.475 2.024h-1.04l.46-1.98c.028-.125.05-.244.066-.361a.866.866 0 00-.004-.306.367.367 0 00-.128-.214c-.068-.055-.171-.082-.311-.082-.135 0-.272.015-.412.043l-.677 2.9h-1.04l.845-3.577.261-.082a3.717 3.717 0 01.72-.15c.146-.017.313-.025.498-.025zm-17.278.89c-.066 0-.15.014-.255.037a.627.627 0 00-.283.15l-.46 1.952.073.014a.624.624 0 00.15.015h.125a.93.93 0 00.46-.121c.145-.08.27-.19.375-.325a1.652 1.652 0 00.338-.994c0-.229-.037-.406-.111-.535-.075-.128-.212-.192-.412-.192zm11.5-.006a.643.643 0 00-.405.135c-.117.091-.214.205-.293.343-.08.138-.139.288-.179.452-.04.164-.059.32-.059.467 0 .238.038.423.112.556.075.132.21.2.405.2a.639.639 0 00.405-.136c.115-.09.213-.205.293-.343.079-.137.138-.288.179-.452.039-.163.058-.32.058-.467 0-.237-.037-.423-.112-.556-.074-.132-.21-.199-.405-.199zm-8.165-2.509c.144 0 .274.044.39.132.117.088.175.223.175.402 0 .1-.02.194-.06.282a.743.743 0 01-.383.382.667.667 0 01-.666-.076c-.117-.087-.176-.221-.176-.402 0-.1.02-.193.06-.282a.749.749 0 01.384-.381.673.673 0 01.276-.057zm11.496 0c.144 0 .275.044.391.132.116.088.175.223.175.402a.74.74 0 01-.443.663.669.669 0 01-.667-.075c-.116-.087-.175-.221-.175-.402 0-.1.02-.193.06-.282a.742.742 0 01.383-.381.673.673 0 01.276-.057z" fill="#fff"/></svg>
